polaris-icons/icons/new-icons/StoreMajor.svg

<svg width="20" height="20" viewBox="0 0 20 20" fill="none" xmlns="http://www.w3.org/2000/svg">
<path fill-rule="evenodd" clip-rule="evenodd" d="M13.9598 2.5C14.4084 2.5 14.8226 2.74036 15.0451 3.12983L16.8353 6.26261C16.9432 6.45148 17 6.66525 17 6.88278V7.75C17 8.81867 16.3904 9.74497 15.5 10.2001V15.75C15.5 16.7165 14.7165 17.5 13.75 17.5H6.25C5.2835 17.5 4.5 16.7165 4.5 15.75V10.2001C3.60958 9.74497 3 8.81867 3 7.75V6.88278C3 6.66525 3.05677 6.45148 3.1647 6.26261L4.95486 3.12983C5.17741 2.74036 5.59159 2.5 6.04016 2.5H13.9598ZM6.18524 4L4.5 6.94917V7.75C4.5 8.44036 5.05964 9 5.75 9H6C6.69036 9 7.25 8.44036 7.25 7.75V7.25C7.25 6.83579 7.58579 6.5 8 6.5C8.41421 6.5 8.75 6.83579 8.75 7.25V7.75C8.75 8.44036 9.30964 9 10 9C10.6904 9 11.25 8.44036 11.25 7.75V7.25C11.25 6.83579 11.5858 6.5 12 6.5C12.4142 6.5 12.75 6.83579 12.75 7.25V7.75C12.75 8.44036 13.3096 9 14 9H14.25C14.9404 9 15.5 8.44036 15.5 7.75V6.94917L13.8148 4H6.18524ZM14 10.5C13.212 10.5 12.5014 10.1686 12 9.63747C11.4986 10.1686 10.788 10.5 10 10.5C9.21199 10.5 8.50138 10.1686 8 9.63747C7.49862 10.1686 6.78801 10.5 6 10.5V15.75C6 15.8881 6.11193 16 6.25 16H8.5V13.5C8.5 12.9477 8.94772 12.5 9.5 12.5H10.5C11.0523 12.5 11.5 12.9477 11.5 13.5V16H13.75C13.8881 16 14 15.8881 14 15.75V10.5Z" fill="#4A4A4A"/>
</svg>

<svg viewBox="0 0 20 20" xmlns="http://www.w3.org/2000/svg"><path fill-rule="evenodd" d="M13.96 2.5c.448 0 .863.24 1.085.63l1.79 3.133c.108.188.165.402.165.62v.867a2.75 2.75 0 0 1-1.5 2.45v5.55a1.75 1.75 0 0 1-1.75 1.75h-7.5a1.75 1.75 0 0 1-1.75-1.75v-5.55a2.75 2.75 0 0 1-1.5-2.45v-.867c0-.218.057-.432.165-.62l1.79-3.133a1.25 1.25 0 0 1 1.085-.63h7.92Zm-7.775 1.5-1.685 2.95v.8c0 .69.56 1.25 1.25 1.25h.25c.69 0 1.25-.56 1.25-1.25v-.5a.75.75 0 0 1 1.5 0v.5a1.25 1.25 0 1 0 2.5 0v-.5a.75.75 0 0 1 1.5 0v.5c0 .69.56 1.25 1.25 1.25h.25c.69 0 1.25-.56 1.25-1.25v-.8l-1.685-2.95h-7.63Zm7.815 6.5a2.742 2.742 0 0 1-2-.863 2.742 2.742 0 0 1-2 .863 2.742 2.742 0 0 1-2-.863 2.742 2.742 0 0 1-2 .863v5.25c0 .138.112.25.25.25h2.25v-2.5a1 1 0 0 1 1-1h1a1 1 0 0 1 1 1v2.5h2.25a.25.25 0 0 0 .25-.25v-5.25Z" fill="#5C5F62"/></svg>
